X: 2
T: The Exile of Erin
C: Tony Sullivan
S: Hayes-Cahill: Live in Seattle, Track 2
Z: Douglas Theobald , using Transcribe!
R: reel
M: C|
L: 1/8
Z: Contributed 20050120202847 by Douglas Theobald dtheobald@hotmail.com
K: Dmix
FGAG FDD2|FGAG FDDd|~de=fe dcAG|E/F/GAB cBAG|
E/F/GAG FDD2|FGAG F{A}DDC|A,DE/E/D CDA,D|G,A,CD EDD2:|
|:dfed c{d}AAd|c{d}AGA FAEA|dfed ^c/c/def|gfg{a}e fde^c|
dfed c/c/AAd|c{d}AGA FAEA|DAAB cAdB|cAGE D4:|
